icon/cg/log-out.svg

<svg viewBox="0 0 24 24" fill="none" xmlns="http://www.w3.org/2000/svg" height="1em" width="1em">
  <path d="M8.51428 20H4.51428C3.40971 20 2.51428 19.1046 2.51428 18V6C2.51428 4.89543 3.40971 4 4.51428 4H8.51428V6H4.51428V18H8.51428V20Z" fill="currentColor"/>
  <path d="M13.8418 17.385L15.262 15.9768L11.3428 12.0242L20.4857 12.0242C21.038 12.0242 21.4857 11.5765 21.4857 11.0242C21.4857 10.4719 21.038 10.0242 20.4857 10.0242L11.3236 10.0242L15.304 6.0774L13.8958 4.6572L7.5049 10.9941L13.8418 17.385Z" fill="currentColor"/>
</svg>

<svg width="24" height="24" fill="none" xmlns="http://www.w3.org/2000/svg"><path d="M8.514 20h-4a2 2 0 0 1-2-2V6a2 2 0 0 1 2-2h4v2h-4v12h4v2Z" fill="currentColor"/><path d="m13.842 17.385 1.42-1.408-3.92-3.953h9.144a1 1 0 1 0 0-2h-9.162l3.98-3.947-1.408-1.42-6.391 6.337 6.337 6.391Z" fill="currentColor"/></svg>
